X:1
T:Burleigh, 10.10.10.10
T:Burleigh, 10.10.10.10
T:Joseph Barnby, 1883
T:Public Domain Courtesy of the Cyber Hymnal™
C:Joseph Barnby, 1883
Z:Public Domain
Z:Courtesy of the Cyber Hymnal™
%%score ( 1 2 ) ( 3 4 )
L:1/8
Q:1/4=115
M:4/4
K:Db
V:1 treble 
V:2 treble 
V:3 bass 
V:4 bass 
V:1
 [Fd]4 [DA]2 [CF]2 | [CE]4 D4 | [B,G]2 [EG]2 [EA]2 [EB]2 | [EA]6 [CG]2 | F4 [E=G]4 | %5
 [EA]2 [Ae]2 [=Ge]2 [Fd]2 | [Ec]4 [EB]4 | [EA]8 | [EA]4 [E_c]2 [Ec]2 | [=DB]4 F4 | %10
 F2 [EG]2 [FA]2 [GB]2 | [CE]8 | [DF]4 [DG]2 [FA]2 | [DB]2 [Ec]2 [Dd]2 [DE]2 | [DF]4 [CE]4 | D8 |] %16
V:2
 x8 | x4 D4 | x8 | x8 | F4 x4 | x8 | x8 | x8 | x8 | x4 F4 | F2 x6 | x8 | x8 | x8 | x8 | D8 |] %16
V:3
 [D,A,]4 [D,F,]2 [A,,A,]2 | [B,,G,]4 [B,,F,]4 | [E,G,]2 [E,B,]2 [E,A,]2 [D,G,]2 | %3
 [C,A,]6 [A,,A,]2 | [D,A,]4 [D,A,]4 | [C,A,]2 [C,A,]2 [D,A,]2 [D,A,]2 | (A,2 B,C) [E,D]4 | [A,C]8 | %8
 [F,_C]4 [F,A,]2 [F,A,]2 | [B,,F,]4 [=D,B,]4 | [E,A,]2 [E,G,]2 [G,,F,]2 [G,,E,]2 | [A,,A,]8 | %12
 A,4 [B,,D]2 [D,_C]2 | [G,B,]2 [F,=A,]2 [B,,F,]2 [B,,=G,]2 | [A,,A,]4 [A,,G,]4 | [D,F,]8 |] %16
V:4
 x8 | x8 | x8 | x8 | x8 | x8 | E,4 x4 | x8 | x8 | x8 | x8 | x8 | (D,2 _C,2) x4 | x8 | x8 | x8 |] %16

